{
  "width": 20,
  "height": 15,
  "tilewidth": 8,
  "tileheight": 8,
  "backgroundcolor": "#2d5a1e",
  "layers": [
    {
      "name": "ground",
      "width": 20,
      "height": 15,
      "visible": true,
      "opacity": 1.0,
      "data": [
        1,1,1,1,1,1,1,1,1,1,1,1,1,1,1,1,1,1,1,1,
        1,4,4,4,1,1,1,1,1,1,1,1,1,1,1,1,1,1,1,1,
        1,4,4,4,1,1,1,1,1,1,1,1,1,1,1,1,1,1,1,1,
        1,4,4,4,1,1,1,1,1,1,1,1,1,1,1,1,1,1,1,1,
        1,1,1,1,1,1,1,1,1,1,1,1,1,1,1,1,1,1,1,1,
        1,1,1,1,1,1,1,1,1,1,1,1,1,1,1,1,1,1,1,1,
        1,1,1,1,1,1,1,1,1,1,1,1,1,1,1,1,1,1,1,1,
        1,1,1,1,1,1,1,1,1,1,1,1,1,1,1,1,1,1,1,1,
        1,1,1,1,1,1,1,1,1,1,1,1,4,4,4,1,1,1,1,1,
        1,1,1,1,1,1,1,1,1,1,1,1,4,4,4,1,1,1,1,1,
        1,1,1,1,1,1,1,1,1,1,1,1,4,4,4,1,1,1,1,1,
        1,1,1,1,1,1,1,1,1,1,1,1,1,1,1,1,1,1,1,1,
        1,1,1,1,1,1,1,1,1,1,1,1,1,1,1,1,1,1,1,1,
        1,1,1,1,1,1,1,1,1,1,1,1,1,1,1,1,1,1,1,1,
        1,1,1,1,1,1,1,1,1,1,1,1,1,1,1,1,1,1,1,1
      ]
    },
    {
      "name": "decoration",
      "width": 20,
      "height": 15,
      "visible": true,
      "opacity": 1.0,
      "data": [
        0,0,2,0,0,0,2,0,0,0,0,0,2,0,0,0,2,0,0,0,
        0,0,0,0,2,0,0,0,0,2,0,0,0,0,2,0,0,0,0,2,
        2,0,0,0,0,0,0,2,0,0,0,0,2,0,0,0,0,2,0,0,
        0,0,2,0,0,0,0,0,0,0,2,0,0,0,0,2,0,0,0,0,
        0,0,0,0,0,2,0,0,0,0,0,0,2,0,0,0,0,0,2,0,
        0,2,0,0,0,0,0,0,2,0,0,0,0,0,2,0,0,0,0,0,
        0,0,0,0,2,0,0,0,0,0,0,2,0,0,0,0,2,0,0,0,
        0,0,0,0,0,0,0,2,0,0,0,0,0,2,0,0,0,0,0,2,
        2,0,0,0,0,2,0,0,0,0,2,0,0,0,0,0,2,0,0,0,
        0,0,2,0,0,0,0,0,2,0,0,0,0,2,0,0,0,0,2,0,
        0,0,0,0,0,0,2,0,0,0,0,2,0,0,0,0,2,0,0,0,
        0,2,0,0,0,0,0,0,0,2,0,0,0,0,0,2,0,0,0,0,
        0,0,0,2,0,0,0,0,2,0,0,0,0,2,0,0,0,0,0,2,
        2,0,0,0,0,0,2,0,0,0,0,2,0,0,0,0,2,0,0,0,
        0,0,2,0,0,0,0,2,0,0,0,0,0,2,0,0,0,2,0,0
      ]
    }
  ],
  "tilesets": [
    {
      "firstgid": 1,
      "name": "demo",
      "tilewidth": 8,
      "tileheight": 8,
      "tilecount": 4,
      "image": "tileset.png",
      "imagewidth": 32,
      "imageheight": 8,
      "columns": 4
    }
  ]
}
